icons/appcircle.svg

<?xml version="1.0" encoding="UTF-8"?>
<svg width="512px" height="106px" viewBox="0 0 512 106" version="1.1" xmlns="http://www.w3.org/2000/svg" xmlns:xlink="http://www.w3.org/1999/xlink" preserveAspectRatio="xMidYMid">
    <g>
				<path d="M162.216853,44.5943315 C162.216853,39.1885555 158.596049,36.1663696 151.764351,36.1663696 C148.15302,36.1663696 144.289728,37.1695155 140.319909,39.1399607 C140.176319,39.2112321 140.01384,39.2946159 139.8326,39.3900605 C138.437276,40.1248684 136.708569,39.5929981 135.971425,38.2020953 L135.966515,38.1927877 L134.037297,34.5198111 C133.306342,33.1281638 133.843643,31.4093247 135.238256,30.6779175 C135.87838,30.3422035 136.405769,30.0736076 136.821026,29.8718705 C142.572905,27.0775378 147.551183,25.8930214 154.367327,25.8930214 C167.041713,25.8930214 174.429697,32.3049341 174.522237,43.2545506 L174.604971,72.0405181 C174.60948,73.6135832 173.333869,74.8924572 171.755804,74.8969633 L171.747619,74.8969752 L165.163962,74.8969752 C163.58589,74.8969752 162.306611,73.6217488 162.306611,72.0486771 L162.306611,69.7949733 C158.891978,73.5072137 153.694397,75.4324214 147.186703,75.4324214 C136.897923,75.4324214 129.993799,69.151122 129.993799,60.2115113 C129.993799,51.0283285 136.873327,45.5266547 148.622827,45.4368062 L162.216853,45.4368062 L162.216853,44.5943315 Z M150.507741,54.0145749 C144.40996,54.0145749 141.850395,55.6409684 141.850395,59.4975831 C141.850395,63.295058 144.91981,65.6945191 149.969194,65.6945191 C156.44379,65.6945191 161.616175,62.3004001 162.216853,57.8912445 L162.216853,54.0145749 L150.507741,54.0145749 Z M208.454375,25.9822624 C222.254249,25.9822624 231.571294,36.0023933 231.571294,50.8412035 C231.571294,65.5072222 222.435355,75.3431803 208.63389,75.3431803 C201.820556,75.3431803 196.358083,72.7903993 192.706162,68.0017597 L192.706162,89.3614363 C192.706162,90.934508 191.426882,92.2097344 189.84881,92.2097344 L183.078612,92.2097344 C181.50054,92.2097344 180.22126,90.934508 180.22126,89.3614363 L180.22126,29.1875245 C180.22126,27.614453 181.50054,26.3392265 183.078612,26.3392265 L189.84881,26.3392265 C191.426882,26.3392265 192.706162,27.614453 192.706162,29.1875245 L192.706162,33.301031 C196.273094,28.5416396 201.715315,25.9822624 208.454375,25.9822624 Z M205.851398,64.5343859 C213.516393,64.5343859 218.906877,58.7451711 218.906877,50.4842393 C218.906877,42.2998636 213.504614,36.5233338 205.851398,36.5233338 C198.121153,36.5233338 192.706162,42.2862896 192.706162,50.4842393 C192.706162,58.8160504 198.079227,64.5343859 205.851398,64.5343859 Z M265.715585,25.9822624 C279.515459,25.9822624 288.832504,36.0023933 288.832504,50.8412035 C288.832504,65.5072222 279.696565,75.3431803 265.8951,75.3431803 C259.081766,75.3431803 253.619293,72.7903993 249.967372,68.0017597 L249.967372,89.3614363 C249.967372,90.934508 248.688092,92.2097344 247.11002,92.2097344 L240.339822,92.2097344 C238.76175,92.2097344 237.48247,90.934508 237.48247,89.3614363 L237.48247,29.1875245 C237.48247,27.614453 238.76175,26.3392265 240.339822,26.3392265 L247.11002,26.3392265 C248.688092,26.3392265 249.967372,27.614453 249.967372,29.1875245 L249.967372,33.301031 C253.534304,28.5416396 258.976525,25.9822624 265.715585,25.9822624 Z M263.112608,64.5343859 C270.777603,64.5343859 276.168087,58.7451711 276.168087,50.4842393 C276.168087,42.2998636 270.765824,36.5233338 263.112608,36.5233338 C255.382363,36.5233338 249.967372,42.2862896 249.967372,50.4842393 C249.967372,58.8160504 255.340437,64.5343859 263.112608,64.5343859 Z M329.787691,40.4879972 C326.930302,38.1850585 323.374365,36.9695388 319.247766,36.9695388 C311.733388,36.9695388 306.551319,42.5219459 306.551319,50.6627212 C306.551319,58.9567289 311.710475,64.5343859 319.247766,64.5343859 C323.115579,64.5343859 326.414256,63.6144958 328.989803,61.8129344 C329.376668,61.5423274 329.840278,61.1439402 330.377549,60.6188652 C331.421236,59.5988613 333.068861,59.5284419 334.196306,60.4556496 L337.813189,63.4301678 C339.030464,64.4312527 339.20314,66.2264616 338.198874,67.4398795 C338.174621,67.4689209 338.174621,67.4689209 338.149855,67.4975299 C337.366488,68.3944687 336.689271,69.0868869 336.11522,69.5763799 C331.700043,73.3412091 325.710466,75.3431803 318.619461,75.3431803 C304.019813,75.3431803 293.976659,65.3315732 293.976659,50.7519624 C293.976659,36.0253337 304.077889,25.9822624 318.798977,25.9822624 C326.643663,25.9822624 333.232854,28.5143711 337.741924,33.175366 C338.742986,34.2101559 338.712976,35.857967 337.674897,36.8558557 L337.657685,36.8722405 L333.779631,40.5327384 C332.718795,41.5340518 331.071094,41.5763928 329.959918,40.6308914 C329.899213,40.5792375 329.841791,40.5315991 329.787691,40.4879972 Z M352.192769,6.25999553 C356.095527,6.25999553 358.88401,9.11643728 358.88401,13.0922492 C358.88401,17.0680611 356.095527,19.9245028 352.192769,19.9245028 C348.290011,19.9245028 345.501528,17.0680611 345.501528,13.0922492 C345.501528,9.11643728 348.290011,6.25999553 352.192769,6.25999553 Z M348.807671,26.3392265 L355.577867,26.3392265 C357.155939,26.3392265 358.435219,27.614453 358.435219,29.1875245 L358.435219,72.0486771 C358.435219,73.6217488 357.155939,74.8969752 355.577867,74.8969752 L348.807671,74.8969752 C347.229599,74.8969752 345.950319,73.6217488 345.950319,72.0486771 L345.950319,29.1875245 C345.950319,27.614453 347.229599,26.3392265 348.807671,26.3392265 Z M390.621784,26.1945734 C390.84847,26.1573495 391.111071,26.1224663 391.410001,26.0897848 C392.978667,25.9182873 394.38979,27.0468851 394.561834,28.6105794 C394.57318,28.7137016 394.578863,28.8173647 394.578863,28.9211052 L394.578863,35.0934813 C394.578863,36.6383367 393.343435,37.9015698 391.794169,37.9408524 C391.392803,37.9510291 391.055661,37.9690035 390.783672,37.9945504 C383.01046,38.7246693 378.242942,43.9309936 378.242942,51.4658905 L378.242942,72.0486771 C378.242942,73.6217488 376.963663,74.8969752 375.385591,74.8969752 L368.615394,74.8969752 C367.037323,74.8969752 365.758043,73.6217488 365.758043,72.0486771 L365.758043,29.1875245 C365.758043,27.614453 367.037323,26.3392265 368.615394,26.3392265 L375.385591,26.3392265 C376.963663,26.3392265 378.242942,27.614453 378.242942,29.1875245 L378.242942,34.3881525 C381.033505,29.8670774 385.251522,27.0764159 390.621784,26.1945734 Z M432.062071,40.6625892 C431.405553,40.102864 430.847302,39.6803931 430.390312,39.3961721 C427.825513,37.8010196 424.800948,36.9695388 421.387494,36.9695388 C413.873116,36.9695388 408.691046,42.5219459 408.691046,50.6627212 C408.691046,58.9567289 413.850202,64.5343859 421.387494,64.5343859 C425.007735,64.5343859 428.130934,63.7283695 430.628626,62.1464514 C431.148917,61.8169232 431.778857,61.2975286 432.513794,60.5895483 C433.559174,59.5825231 435.196424,59.5184368 436.317797,60.440651 L439.943444,63.4223757 C441.160722,64.4234584 441.333401,66.2186702 440.329132,67.4320904 C440.301027,67.4656972 440.301027,67.4656972 440.272235,67.4987231 C439.361253,68.5329953 438.575171,69.3208304 437.910352,69.8640161 C433.528203,73.4444283 427.665391,75.3431803 420.75919,75.3431803 C406.159542,75.3431803 396.116386,65.3315732 396.116386,50.7519624 C396.116386,36.0253337 406.217617,25.9822624 420.938706,25.9822624 C428.030754,25.9822624 434.104809,28.0507766 438.546352,31.9098586 C438.877944,32.1979626 439.262445,32.5714069 439.701083,33.0309047 C440.788926,34.1704835 440.744049,35.973373 439.600847,37.057769 L439.595752,37.0625892 L435.883896,40.5662136 C434.822297,41.5682652 433.173142,41.6098515 432.062071,40.6625892 Z M448.948246,7.86633401 L455.718445,7.86633401 C457.296517,7.86633401 458.575797,9.14156046 458.575797,10.714632 L458.575797,72.0486771 C458.575797,73.6217488 457.296517,74.8969752 455.718445,74.8969752 L448.948246,74.8969752 C447.370174,74.8969752 446.090894,73.6217488 446.090894,72.0486771 L446.090894,10.714632 C446.090894,9.14156046 447.370174,7.86633401 448.948246,7.86633401 Z M489.749921,65.1590729 C493.575684,65.1590729 497.17961,64.0094104 500.170477,61.8374766 C500.332487,61.7198245 500.517617,61.5753117 500.725412,61.404151 C501.877769,60.4549679 503.569289,60.551603 504.605312,61.6258068 L507.523608,64.6516502 C508.617295,65.7856527 508.581699,67.5887408 507.444097,68.6789661 C507.416508,68.7054063 507.38839,68.7312911 507.359756,68.7566053 C506.231295,69.7542873 505.277123,70.5047421 504.49366,71.0093398 C500.090913,73.8449677 494.72248,75.3431803 488.762586,75.3431803 C473.722049,75.3431803 463.670994,65.4280665 463.670994,50.7519624 C463.670994,36.0567016 473.83023,25.9822624 488.493311,25.9822624 C503.819293,25.9822624 511.906825,34.9845264 511.999731,50.9196114 C512.001534,51.2953031 511.99429,51.7624174 511.977664,52.3215492 C511.931892,53.8610878 510.666679,55.0854673 509.121569,55.0854673 L476.534805,55.0854673 C478.15334,61.3750583 483.101966,65.1590729 489.749921,65.1590729 Z M500.450163,46.5076986 C500.019807,39.921347 495.48653,35.8094056 488.58307,35.8094056 C482.076132,35.8094056 477.422214,39.8796986 476.229094,46.5076986 L500.450163,46.5076986 Z" fill="#FFFFFF"></path>
				<path d="M38.5031117,75.2790599 C46.6025994,81.8641555 47.9661105,88.8605705 42.5936447,96.2683058 C35.9711414,105.187668 23.7135451,108.42747 13.3378358,103.409708 L13.2509335,103.367681 C13.2258457,103.355549 13.2007796,103.343372 13.1757352,103.33115 C1.51206677,97.6393613 -3.31069351,83.6075474 2.40379866,71.9902171 L15.3378151,45.6958872 L22.6057347,30.9205022 L31.3405537,13.1629702 C35.5851599,4.53385821 44.4381985,-0.350139507 53.5008568,0.0195798989 C62.2553454,-0.0134744385 70.6812275,4.83012795 74.789649,13.182382 L103.726404,72.0096289 C109.440896,83.6269593 104.618136,97.6587728 92.9544675,103.350562 C92.9294234,103.362784 92.9043572,103.374961 92.8792691,103.387093 L92.792367,103.42912 C81.2003879,109.035078 67.2594622,104.334054 61.4520363,92.9210759 C58.4419971,86.6158192 60.4494554,80.6643724 67.4744107,75.0667351 L67.4720875,75.0667351 C72.7554007,70.8159372 76.1343016,64.3104592 76.1343016,57.0189316 C76.1343016,44.212468 65.7112022,33.8307779 52.8536569,33.8307779 C39.9961119,33.8307779 29.5730124,44.212468 29.5730124,57.0189316 C29.5730124,64.432957 33.0663983,71.0343002 38.5031117,75.2790599 Z M52.8746844,69.1714421 C46.1190253,69.1714421 40.6424814,63.7166558 40.6424814,56.9878358 C40.6424814,50.2590159 46.1190253,44.8042296 52.8746844,44.8042296 C59.6303436,44.8042296 65.1068874,50.2590159 65.1068874,56.9878358 C65.1068874,63.7166558 59.6303436,69.1714421 52.8746844,69.1714421 Z" fill="#FF8F34"></path>
    </g>
</svg>

<svg xmlns="http://www.w3.org/2000/svg" viewBox="0 0 512 105.794">
  <path fill="#fff" d="M162.217 44.594c0-5.405-3.621-8.428-10.453-8.428-3.611 0-7.474 1.004-11.444 2.974-.144.071-.306.155-.487.25a2.862 2.862 0 0 1-3.862-1.188l-.005-.01-1.929-3.672a2.844 2.844 0 0 1 1.201-3.842c.64-.336 1.168-.604 1.583-.806 5.752-2.794 10.73-3.979 17.546-3.979 12.675 0 20.063 6.412 20.155 17.362l.083 28.786a2.852 2.852 0 0 1-2.85 2.856H165.165a2.853 2.853 0 0 1-2.857-2.848v-2.254c-3.415 3.712-8.613 5.637-15.12 5.637-10.289 0-17.193-6.28-17.193-15.22 0-9.184 6.88-14.685 18.629-14.775h13.594zm-11.71 9.42c-6.097 0-8.657 1.627-8.657 5.484 0 3.797 3.07 6.197 8.12 6.197 6.474 0 11.646-3.395 12.247-7.804v-3.876zm57.947-28.032c13.8 0 23.117 10.02 23.117 24.86 0 14.665-9.136 24.501-22.937 24.501-6.813 0-12.276-2.553-15.928-7.341v21.36a2.853 2.853 0 0 1-2.857 2.848h-6.77a2.853 2.853 0 0 1-2.858-2.849V29.188a2.853 2.853 0 0 1 2.858-2.849h6.77a2.853 2.853 0 0 1 2.857 2.849V33.3c3.567-4.76 9.01-7.319 15.748-7.319zm-2.603 38.552c7.665 0 13.056-5.789 13.056-14.05 0-8.184-5.402-13.96-13.056-13.96-7.73 0-13.145 5.762-13.145 13.96 0 8.332 5.373 14.05 13.145 14.05zm59.865-38.552c13.8 0 23.116 10.02 23.116 24.86 0 14.665-9.135 24.501-22.937 24.501-6.813 0-12.276-2.553-15.928-7.341v21.36a2.853 2.853 0 0 1-2.857 2.848h-6.77a2.853 2.853 0 0 1-2.858-2.849V29.188a2.853 2.853 0 0 1 2.858-2.849h6.77a2.853 2.853 0 0 1 2.857 2.849V33.3c3.567-4.76 9.01-7.319 15.749-7.319zm-2.603 38.552c7.665 0 13.055-5.789 13.055-14.05 0-8.184-5.402-13.96-13.055-13.96-7.73 0-13.146 5.762-13.146 13.96 0 8.332 5.373 14.05 13.146 14.05zm66.675-24.046c-2.858-2.303-6.414-3.518-10.54-3.518-7.515 0-12.697 5.552-12.697 13.693 0 8.294 5.16 13.871 12.697 13.871 3.868 0 7.166-.92 9.742-2.721.387-.27.85-.67 1.388-1.194a2.864 2.864 0 0 1 3.818-.163l3.617 2.974a2.842 2.842 0 0 1 .386 4.01l-.05.058c-.782.896-1.46 1.589-2.034 2.078-4.415 3.765-10.405 5.767-17.496 5.767-14.6 0-24.642-10.011-24.642-24.591 0-14.727 10.1-24.77 24.822-24.77 7.845 0 14.434 2.532 18.943 7.193a2.597 2.597 0 0 1-.067 3.68l-.017.017-3.878 3.66a2.864 2.864 0 0 1-3.82.099 8.43 8.43 0 0 0-.172-.143zM352.193 6.26c3.903 0 6.691 2.856 6.691 6.832s-2.788 6.833-6.691 6.833-6.691-2.857-6.691-6.833 2.788-6.832 6.69-6.832zm-3.385 20.08h6.77a2.853 2.853 0 0 1 2.857 2.848v42.86a2.853 2.853 0 0 1-2.857 2.849h-6.77a2.853 2.853 0 0 1-2.858-2.848V29.188a2.853 2.853 0 0 1 2.858-2.849zm41.814-.145c.226-.038.49-.073.788-.105a2.855 2.855 0 0 1 3.169 2.831v6.172a2.853 2.853 0 0 1-2.785 2.848c-.401.01-.738.028-1.01.054-7.774.73-12.541 5.936-12.541 13.47V72.05a2.853 2.853 0 0 1-2.857 2.848h-6.77a2.853 2.853 0 0 1-2.858-2.848V29.188a2.853 2.853 0 0 1 2.857-2.849h6.77a2.853 2.853 0 0 1 2.858 2.849v5.2c2.79-4.52 7.008-7.312 12.379-8.193zm41.44 14.468c-.656-.56-1.215-.983-1.672-1.267-2.564-1.595-5.59-2.426-9.003-2.426-7.514 0-12.696 5.552-12.696 13.693 0 8.294 5.16 13.871 12.696 13.871 3.62 0 6.744-.806 9.242-2.388.52-.33 1.15-.848 1.885-1.556a2.864 2.864 0 0 1 3.804-.15l3.625 2.982a2.842 2.842 0 0 1 .386 4.01l-.057.067c-.91 1.034-1.697 1.822-2.362 2.365-4.382 3.58-10.245 5.48-17.15 5.48-14.6 0-24.644-10.012-24.644-24.592 0-14.727 10.102-24.77 24.823-24.77 7.092 0 13.166 2.069 17.607 5.928.332.288.716.661 1.155 1.12a2.842 2.842 0 0 1-.1 4.028l-.005.005-3.712 3.503a2.864 2.864 0 0 1-3.822.097zm16.886-32.797h6.77a2.853 2.853 0 0 1 2.858 2.849v61.334a2.853 2.853 0 0 1-2.858 2.848h-6.77a2.853 2.853 0 0 1-2.857-2.848V10.715a2.853 2.853 0 0 1 2.857-2.849zM489.75 65.16c3.826 0 7.43-1.15 10.42-3.322.162-.117.348-.262.555-.433a2.864 2.864 0 0 1 3.88.222l2.919 3.026a2.842 2.842 0 0 1-.164 4.105c-1.129.997-2.083 1.748-2.866 2.252-4.403 2.836-9.771 4.334-15.731 4.334-15.04 0-25.092-9.915-25.092-24.591 0-14.695 10.16-24.77 24.822-24.77 15.326 0 23.414 9.003 23.507 24.938.002.375-.005.842-.022 1.402a2.853 2.853 0 0 1-2.856 2.763h-32.587c1.618 6.29 6.567 10.074 13.215 10.074zm10.7-18.651c-.43-6.587-4.963-10.699-11.867-10.699-6.507 0-11.16 4.07-12.354 10.699z"/>
  <path fill="#ff8f34" d="M38.503 75.28c8.1 6.584 9.463 13.58 4.09 20.988-6.622 8.92-18.88 12.16-29.255 7.142l-.087-.042a21.68 21.68 0 0 1-.075-.037C1.512 97.64-3.311 83.608 2.404 71.991l12.934-26.295 7.268-14.775 8.735-17.758C35.585 4.533 44.438-.35 53.5.02c8.754-.033 17.18 4.81 21.289 13.162l28.936 58.828c5.715 11.617.892 25.649-10.772 31.34l-.075.037-.087.042c-11.592 5.606-25.533.905-31.34-10.508-3.01-6.305-1.003-12.257 6.022-17.854h-.002c5.283-4.251 8.662-10.757 8.662-18.048 0-12.807-10.423-23.188-23.28-23.188-12.858 0-23.281 10.381-23.281 23.188 0 7.414 3.493 14.015 8.93 18.26zm14.372-6.109c-6.756 0-12.233-5.454-12.233-12.183s5.477-12.184 12.233-12.184c6.755 0 12.232 5.455 12.232 12.184 0 6.729-5.477 12.183-12.232 12.183z"/>
</svg>
